X: 10623
T: STAR HORNPIPE
C: Composed by W.B. Laybourn
R: hornpipe
B: K\"ohler's Violin Repository, v.1, 1885 p.62 #3
F: http://www.archive.org/details/klersviolinrepos01edin
Z: 2012 John Chambers <jc:trillian.mit.edu>
M: C|
L: 1/8
K: Eb
u((3Bcd) |\
(e>d)e>f (g>f)e>d | (c>B)c>d (e>d)c>B | (A>G)A>B (c>B)A>G | (3FGF (3EDC B,2 ((3Bcd) |
(e>d)e>f (g>f)e>d | (c>B)c>d (e>B)A>F | E2 (3eBG B,2 (3AFD | [E2G,2][G2B,2][E2G,2] :|
|: u(G>A) |\
B(B,G,B,) EGBe | c(C=B,C) Acfa | (g>a)b>a (g>f)e>c | (3BcB (3ABA B=A_AF |
B(B,G,B,) EGBe | c(C=B,C) Acfa | (g>e)g>b (af)df | e2[E2G,2][E2G,2] :|

%%sep 2 1 500

